X: 29871
T: O'Keefe's
R: slide
M: 12/8
K: Dmajor
|:A2F ABd f3 fef|gfe fed B3 B2A|
Bcd B2A Bcd B2A|1 Bcd efe d3 dcB:|2 Bcd efe d3 d2f||
|:aba a2f e2d B3|e2d BAB e2d Bef|
aba a2f e2d B2A|1 Bcd efe d3 d2f:|2 Bcd efe d3 dcB||

